static/logos/clearbit-wordmark-color.svg

<svg width="148" height="38" viewBox="0 0 148 38" fill="none" xmlns="http://www.w3.org/2000/svg">
<path d="M64.5592 14.3639C64.0658 13.6864 63.3832 13.1697 62.5972 12.8789C61.7902 12.5549 61.0012 12.3929 60.2302 12.3929C59.2452 12.3929 58.3482 12.5729 57.5422 12.9329C56.7503 13.2822 56.0368 13.7872 55.4442 14.4179C54.8606 15.0646 54.4047 15.8158 54.1003 16.6319C53.7891 17.5164 53.6344 18.4484 53.6432 19.3859C53.6432 20.4299 53.7953 21.3839 54.1003 22.2479C54.3815 23.071 54.8195 23.8317 55.3902 24.4879C55.9653 25.1014 56.6612 25.589 57.4342 25.9199C58.2232 26.2619 59.1102 26.4329 60.0962 26.4329C61.1182 26.4329 62.0232 26.2349 62.8122 25.8389C63.6002 25.4249 64.2372 24.8849 64.7212 24.2189L67.4373 26.1359C66.6077 27.1875 65.55 28.0369 64.3442 28.6199C63.1252 29.1959 61.7002 29.4839 60.0692 29.4839C58.5812 29.4839 57.2102 29.2409 55.9552 28.7539C54.7619 28.279 53.6744 27.5728 52.7552 26.6759C51.8515 25.7639 51.139 24.6808 50.6592 23.4899C50.1572 22.2479 49.9062 20.8799 49.9062 19.3859C49.9062 17.8559 50.1662 16.4789 50.6862 15.2549C51.2242 14.0129 51.9503 12.9599 52.8643 12.0949C53.8154 11.2197 54.93 10.541 56.1442 10.0979C57.3992 9.62994 58.7622 9.39594 60.2312 9.39594C60.8412 9.39594 61.4772 9.45894 62.1412 9.58494C62.8042 9.69294 63.4413 9.87294 64.0503 10.1249C64.6603 10.3589 65.2333 10.6549 65.7703 11.0149C66.3083 11.3749 66.7652 11.8079 67.1422 12.3119L64.5592 14.3639ZM69.4342 8.58594H72.6613V28.9979H69.4342V8.58594ZM85.6632 21.2219C85.6632 20.8079 85.6012 20.4119 85.4752 20.0339C85.3726 19.6647 85.1889 19.323 84.9373 19.0339C84.672 18.7364 84.3403 18.5055 83.9692 18.3599C83.5932 18.1799 83.1452 18.0899 82.6252 18.0899C81.6572 18.0899 80.8322 18.3869 80.1512 18.9799C79.4882 19.5569 79.1213 20.3039 79.0493 21.2219H85.6632ZM88.8902 22.6799V23.1119C88.8902 23.2559 88.8812 23.3999 88.8632 23.5439H79.0493C79.0853 24.0119 79.2013 24.4439 79.3993 24.8399C79.6133 25.2179 79.8913 25.5499 80.2323 25.8389C80.5723 26.1089 80.9582 26.3249 81.3882 26.4869C81.8182 26.6489 82.2662 26.7299 82.7332 26.7299C83.5392 26.7299 84.2202 26.5859 84.7762 26.2979C85.3249 25.9981 85.7949 25.5725 86.1473 25.0559L88.2983 26.7839C87.0263 28.5119 85.1793 29.3759 82.7593 29.3759C81.7563 29.3759 80.8322 29.2229 79.9892 28.9159C79.1757 28.6094 78.4279 28.1513 77.7853 27.5659C77.1625 26.9709 76.6682 26.2545 76.3332 25.4609C75.9932 24.6149 75.8232 23.6609 75.8232 22.5989C75.8232 21.5549 75.9932 20.6089 76.3332 19.7639C76.6922 18.8999 77.1763 18.1709 77.7853 17.5769C78.3964 16.9639 79.129 16.4856 79.9362 16.1729C80.7995 15.8269 81.7221 15.6527 82.6522 15.6599C83.5482 15.6599 84.3722 15.8129 85.1262 16.1189C85.8839 16.3981 86.5655 16.8513 87.1162 17.4419C87.6712 18.0179 88.1012 18.7469 88.4062 19.6289C88.7292 20.4929 88.8902 21.5089 88.8902 22.6789V22.6799ZM99.8703 27.3499H99.7902C99.4672 27.9269 98.9473 28.4039 98.2303 28.7819C97.5133 29.1419 96.6972 29.3219 95.7832 29.3219C95.2632 29.3219 94.7172 29.2499 94.1432 29.1059C93.5899 28.981 93.0622 28.7618 92.5832 28.4579C92.1103 28.1266 91.7081 27.7044 91.4002 27.2159C91.0952 26.6939 90.9432 26.0549 90.9432 25.2989C90.9432 24.3269 91.2122 23.5529 91.7502 22.9769C92.3062 22.4009 93.0142 21.9599 93.8742 21.6539C94.7342 21.3479 95.6842 21.1499 96.7242 21.0599C97.7514 20.9535 98.7834 20.8994 99.8162 20.8979V20.5739C99.8162 19.7639 99.5212 19.1699 98.9292 18.7919C98.3552 18.3959 97.6652 18.1979 96.8592 18.1979C96.1812 18.1971 95.5113 18.3445 94.8963 18.6299C94.2683 18.9179 93.7482 19.2689 93.3362 19.6829L91.6692 17.7119C92.3979 17.0314 93.2582 16.5073 94.1972 16.1719C95.1374 15.8352 96.1284 15.662 97.1272 15.6599C98.2752 15.6599 99.2163 15.8219 99.9513 16.1459C100.704 16.4699 101.295 16.8929 101.725 17.4149C102.155 17.9369 102.451 18.5219 102.613 19.1699C102.792 19.8179 102.882 20.4659 102.882 21.1139V28.9979H99.8693V27.3499H99.8703ZM99.8162 23.0849H99.0903C98.5703 23.0849 98.0242 23.1119 97.4502 23.1649C96.9108 23.1948 96.3776 23.295 95.8642 23.4629C95.3802 23.6069 94.9762 23.8229 94.6542 24.1109C94.3312 24.3809 94.1702 24.7589 94.1702 25.2449C94.1702 25.5509 94.2332 25.8119 94.3582 26.0279C94.5012 26.2259 94.6813 26.3879 94.8963 26.5139C95.1113 26.6399 95.3532 26.7299 95.6222 26.7839C95.8912 26.8379 96.1602 26.8639 96.4282 26.8639C97.5402 26.8639 98.3822 26.5679 98.9562 25.9739C99.5302 25.3799 99.8162 24.5699 99.8162 23.5439V23.0839V23.0849ZM106.641 16.0379H109.733V18.1979H109.787C110.124 17.4676 110.643 16.8357 111.293 16.3619C111.938 15.8939 112.691 15.6599 113.551 15.6599C113.677 15.6599 113.811 15.6689 113.954 15.6869C114.098 15.6869 114.224 15.7049 114.331 15.7409V18.7109C114.145 18.6625 113.956 18.6264 113.766 18.6029C113.623 18.585 113.48 18.576 113.336 18.5759C112.601 18.5759 112.009 18.7109 111.561 18.9809C111.143 19.2226 110.785 19.5547 110.513 19.9529C110.273 20.3051 110.1 20.6983 110.002 21.1129C109.912 21.5099 109.867 21.8249 109.867 22.0589V28.9979H106.641V16.0379ZM119.715 8.58594V17.6849H119.796C119.958 17.4689 120.164 17.2439 120.415 17.0099C120.665 16.7759 120.961 16.5599 121.302 16.3619C121.693 16.1507 122.109 15.9875 122.539 15.8759C123.054 15.7251 123.588 15.6523 124.125 15.6599C125.039 15.6599 125.882 15.8399 126.653 16.1999C127.423 16.5419 128.087 17.0189 128.643 17.6299C129.209 18.2595 129.647 18.9931 129.933 19.7899C130.243 20.6471 130.398 21.5525 130.39 22.4639C130.396 23.3837 130.241 24.2974 129.933 25.1639C129.659 25.9689 129.23 26.7121 128.669 27.3509C128.114 27.9761 127.436 28.4814 126.679 28.8359C125.909 29.1959 125.03 29.3759 124.044 29.3759C123.15 29.3802 122.266 29.1769 121.464 28.7819C120.69 28.3997 120.044 27.7989 119.608 27.0539H119.554V28.9979H116.489V8.58594H119.716H119.715ZM127.11 22.4639C127.11 21.9599 127.03 21.4639 126.868 20.9789C126.732 20.4902 126.504 20.0319 126.196 19.6289C125.887 19.2298 125.492 18.9066 125.039 18.6839C124.573 18.4319 124.027 18.3059 123.399 18.3059C122.808 18.3059 122.279 18.4319 121.813 18.6839C121.347 18.9359 120.943 19.2599 120.603 19.6559C120.276 20.0593 120.021 20.516 119.85 21.0059C119.691 21.4943 119.61 22.0044 119.608 22.5179C119.608 23.0219 119.688 23.5259 119.85 24.0299C120.03 24.5159 120.28 24.9569 120.603 25.3529C120.943 25.7489 121.347 26.0729 121.813 26.3249C122.279 26.5589 122.808 26.6749 123.399 26.6749C124.027 26.6749 124.573 26.5499 125.039 26.2979C125.489 26.0596 125.884 25.7283 126.196 25.3259C126.5 24.9299 126.724 24.4799 126.868 23.9759C127.027 23.4876 127.108 22.9775 127.11 22.4639ZM133.557 16.0379H136.783V28.9979H133.557V16.0379ZM133.099 11.6369C133.099 11.1149 133.287 10.6649 133.663 10.2869C134.058 9.89094 134.551 9.69294 135.143 9.69294C135.733 9.69294 136.227 9.88194 136.621 10.2599C137.033 10.6199 137.239 11.0789 137.239 11.6369C137.239 12.1949 137.033 12.6629 136.621 13.0409C136.227 13.4009 135.734 13.5809 135.142 13.5809C134.551 13.5809 134.058 13.3909 133.663 13.0139C133.483 12.8329 133.34 12.618 133.244 12.3817C133.147 12.1454 133.098 11.8923 133.099 11.6369ZM138.842 18.6299V16.0379H141.102V12.2849H144.274V16.0379H147.499V18.6299H144.273V24.6499C144.273 25.2269 144.372 25.7039 144.569 26.0819C144.784 26.4599 145.249 26.6489 145.967 26.6489C146.182 26.6489 146.415 26.6309 146.666 26.5949C146.916 26.5409 147.141 26.4689 147.338 26.3789L147.446 28.9169C147.115 29.0355 146.773 29.117 146.424 29.1599C146.03 29.2319 145.654 29.2679 145.294 29.2679C144.434 29.2679 143.735 29.1509 143.197 28.9169C142.66 28.6649 142.229 28.3319 141.907 27.9169C141.599 27.4779 141.379 26.983 141.261 26.4599C141.151 25.8724 141.098 25.2757 141.101 24.6779V18.6299H138.841H138.842Z" fill="black"/>
<g filter="url(#filter0_f_1_3269)">
<path d="M26.357 34.9999H11.511L10.905 34.9951C8.3982 34.9543 7.4011 34.6489 6.39644 34.1094C5.31451 33.5284 4.4654 32.6758 3.88677 31.5894L3.76693 31.356C3.28497 30.3784 3.02079 29.2995 3.00118 26.7649L3 11.5463C3 8.57453 3.30814 7.49691 3.88677 6.4105C4.4654 5.32409 5.31451 4.47146 6.39644 3.89044L6.62884 3.77011C7.60237 3.28615 8.67683 3.02087 11.2011 3.00118L26.357 3C29.3164 3 30.3896 3.30942 31.4715 3.89044C32.5535 4.47146 33.4026 5.32409 33.9812 6.4105L34.101 6.64386C34.583 7.62142 34.8472 8.70032 34.8668 11.235L34.868 26.4536L34.8633 27.0621C34.8226 29.5793 34.5185 30.5806 33.9812 31.5894C33.4026 32.6758 32.5535 33.5284 31.4715 34.1094L31.2391 34.2298C30.2267 34.7331 29.105 34.9999 26.357 34.9999Z" fill="#C4D3E0" fill-opacity="0.2"/>
</g>
<path d="M34.8715 19V26.4537C34.8715 29.4254 34.5633 30.503 33.9847 31.5894C33.4061 32.6759 32.557 33.5285 31.475 34.1095C30.3931 34.6905 29.3199 34.9999 26.3605 34.9999H18.9375V19H34.8715Z" fill="url(#paint0_linear_1_3269)"/>
<path d="M18.9375 3H26.3605C29.3199 3 30.3931 3.30942 31.475 3.89044C32.557 4.47146 33.4061 5.32408 33.9847 6.4105C34.5633 7.49691 34.8715 8.57453 34.8715 11.5462V18.9999H18.9375V3Z" fill="url(#paint1_linear_1_3269)"/>
<path d="M11.511 3H18.934V34.9999H11.511C8.55156 34.9999 7.47838 34.6904 6.39644 34.1094C5.31451 33.5284 4.4654 32.6758 3.88677 31.5894C3.30814 30.5029 3 29.4253 3 26.4536V11.5463C3 8.57453 3.30814 7.49691 3.88677 6.4105C4.4654 5.32409 5.31451 4.47146 6.39644 3.89044C7.47838 3.30942 8.55156 3 11.511 3Z" fill="url(#paint2_linear_1_3269)"/>
<defs>
<filter id="filter0_f_1_3269" x="0.28576" y="0.28576" width="37.2957" height="37.4284" filterUnits="userSpaceOnUse" color-interpolation-filters="sRGB">
<feFlood flood-opacity="0" result="BackgroundImageFix"/>
<feBlend mode="normal" in="SourceGraphic" in2="BackgroundImageFix" result="shape"/>
<feGaussianBlur stdDeviation="1.35712" result="effect1_foregroundBlur_1_3269"/>
</filter>
<linearGradient id="paint0_linear_1_3269" x1="26.9045" y1="19" x2="34.9242" y2="34.9734" gradientUnits="userSpaceOnUse">
<stop stop-color="#DEF2FE"/>
<stop offset="1" stop-color="#DBF1FE"/>
</linearGradient>
<linearGradient id="paint1_linear_1_3269" x1="18.9375" y1="3" x2="26.9573" y2="18.9734" gradientUnits="userSpaceOnUse">
<stop stop-color="#57BCFD"/>
<stop offset="1" stop-color="#51B5FD"/>
</linearGradient>
<linearGradient id="paint2_linear_1_3269" x1="8.97525" y1="3" x2="22.6088" y2="30.1548" gradientUnits="userSpaceOnUse">
<stop stop-color="#1CA7FD"/>
<stop offset="1" stop-color="#148CFC"/>
</linearGradient>
</defs>
</svg>

<svg xmlns="http://www.w3.org/2000/svg" width="249.263" height="64" fill="none" viewBox="0 0 148 38"><path fill="#000" d="M64.56 14.364a4.253 4.253 0 0 0-1.963-1.485c-.807-.324-1.596-.486-2.367-.486-.985 0-1.882.18-2.688.54a6.451 6.451 0 0 0-2.098 1.485 6.908 6.908 0 0 0-1.344 2.214 8.07 8.07 0 0 0-.457 2.754c0 1.044.152 1.998.457 2.862.282.823.72 1.584 1.29 2.24a6.083 6.083 0 0 0 2.044 1.432c.79.342 1.676.513 2.662.513 1.022 0 1.927-.198 2.716-.594.788-.414 1.425-.954 1.91-1.62l2.715 1.917a8.842 8.842 0 0 1-3.093 2.484c-1.219.576-2.644.864-4.275.864-1.488 0-2.859-.243-4.114-.73a9.738 9.738 0 0 1-3.2-2.078 9.65 9.65 0 0 1-2.096-3.186c-.502-1.242-.753-2.61-.753-4.104 0-1.53.26-2.907.78-4.131.538-1.242 1.264-2.295 2.178-3.16a9.81 9.81 0 0 1 3.28-1.997c1.255-.468 2.618-.702 4.087-.702.61 0 1.246.063 1.91.189.663.108 1.3.288 1.91.54.61.234 1.182.53 1.72.89.537.36.994.793 1.371 1.297l-2.583 2.052Zm4.874-5.778h3.227v20.412h-3.227V8.586Zm16.23 12.636c0-.414-.063-.81-.189-1.188a2.572 2.572 0 0 0-.538-1 2.54 2.54 0 0 0-.968-.674c-.376-.18-.824-.27-1.344-.27-.968 0-1.793.297-2.474.89-.663.577-1.03 1.324-1.102 2.242h6.614Zm3.226 1.458v.432c0 .144-.009.288-.027.432H79.05c.036.468.152.9.35 1.296.214.378.492.71.833.999.34.27.726.486 1.156.648.43.162.878.243 1.345.243.806 0 1.487-.144 2.043-.432a3.956 3.956 0 0 0 1.371-1.242l2.151 1.728c-1.272 1.728-3.119 2.592-5.539 2.592-1.003 0-1.927-.153-2.77-.46a6.868 6.868 0 0 1-2.204-1.35 6.3 6.3 0 0 1-1.452-2.105c-.34-.846-.51-1.8-.51-2.862 0-1.044.17-1.99.51-2.835.36-.864.843-1.593 1.452-2.187a6.199 6.199 0 0 1 2.151-1.404 7.152 7.152 0 0 1 2.716-.513c.896 0 1.72.153 2.474.459a5.16 5.16 0 0 1 1.99 1.323c.555.576.985 1.305 1.29 2.187.323.864.484 1.88.484 3.05Zm10.98 4.67h-.08c-.323.577-.843 1.054-1.56 1.432-.717.36-1.533.54-2.447.54-.52 0-1.066-.072-1.64-.216a4.944 4.944 0 0 1-1.56-.648 4.346 4.346 0 0 1-1.183-1.242c-.305-.522-.457-1.161-.457-1.917 0-.972.27-1.746.807-2.322.556-.576 1.264-1.017 2.124-1.323.86-.306 1.81-.504 2.85-.594a30.44 30.44 0 0 1 3.092-.162v-.324c0-.81-.295-1.404-.887-1.782-.574-.396-1.264-.594-2.07-.594a4.65 4.65 0 0 0-1.963.432c-.628.288-1.148.639-1.56 1.053l-1.667-1.971a7.303 7.303 0 0 1 2.528-1.54 8.745 8.745 0 0 1 2.93-.512c1.148 0 2.09.162 2.824.486.753.324 1.344.747 1.774 1.269.43.522.726 1.107.888 1.755.179.648.269 1.296.269 1.944v7.884h-3.013V27.35h.001Zm-.054-4.265h-.726c-.52 0-1.066.027-1.64.08-.54.03-1.072.13-1.586.298-.484.144-.888.36-1.21.648-.323.27-.484.648-.484 1.134 0 .306.063.567.188.783.143.198.323.36.538.486.215.126.457.216.726.27.27.054.538.08.806.08 1.112 0 1.954-.296 2.528-.89.574-.594.86-1.404.86-2.43v-.46Zm6.825-7.047h3.092v2.16h.054a4.72 4.72 0 0 1 1.506-1.836c.645-.468 1.398-.702 2.258-.702.126 0 .26.009.403.027.144 0 .27.018.377.054v2.97a4.38 4.38 0 0 0-.565-.108 3.474 3.474 0 0 0-.43-.027c-.735 0-1.327.135-1.775.405a3.222 3.222 0 0 0-1.048.972c-.24.352-.413.745-.511 1.16-.09.397-.135.712-.135.946v6.939h-3.226v-12.96Zm13.074-7.452v9.099h.081c.162-.216.368-.441.619-.675.25-.234.546-.45.887-.648a5.525 5.525 0 0 1 1.237-.486 5.37 5.37 0 0 1 1.586-.216c.914 0 1.757.18 2.528.54.77.342 1.434.819 1.99 1.43a6.53 6.53 0 0 1 1.29 2.16c.31.857.465 1.762.457 2.674a7.908 7.908 0 0 1-.457 2.7 6.475 6.475 0 0 1-1.264 2.187 6.148 6.148 0 0 1-1.99 1.485c-.77.36-1.649.54-2.635.54a5.779 5.779 0 0 1-2.58-.594 4.416 4.416 0 0 1-1.856-1.728h-.054v1.944h-3.065V8.586h3.227-.001Zm7.395 13.878c0-.504-.08-1-.242-1.485a3.98 3.98 0 0 0-.672-1.35 3.31 3.31 0 0 0-1.157-.945c-.466-.252-1.012-.378-1.64-.378-.591 0-1.12.126-1.586.378-.466.252-.87.576-1.21.972-.327.403-.582.86-.753 1.35-.159.488-.24.998-.242 1.512 0 .504.08 1.008.242 1.512.18.486.43.927.753 1.323.34.396.744.72 1.21.972.466.234.995.35 1.586.35.628 0 1.174-.125 1.64-.377a3.59 3.59 0 0 0 1.157-.972c.304-.396.528-.846.672-1.35.159-.488.24-.998.242-1.512Zm6.447-6.426h3.226v12.96h-3.226v-12.96Zm-.458-4.401c0-.522.188-.972.564-1.35.395-.396.888-.594 1.48-.594.59 0 1.084.189 1.478.567.412.36.618.819.618 1.377s-.206 1.026-.618 1.404c-.394.36-.887.54-1.479.54-.591 0-1.084-.19-1.479-.567a1.94 1.94 0 0 1-.564-1.377Zm5.743 6.993v-2.592h2.26v-3.753h3.172v3.753h3.225v2.592h-3.226v6.02c0 .577.099 1.054.296 1.432.215.378.68.567 1.398.567.215 0 .448-.018.699-.054.25-.054.475-.126.672-.216l.108 2.538c-.331.118-.673.2-1.022.243-.394.072-.77.108-1.13.108-.86 0-1.559-.117-2.097-.351-.537-.252-.968-.585-1.29-1a4.114 4.114 0 0 1-.646-1.457 9.425 9.425 0 0 1-.16-1.782V18.63h-2.26.001Z"/><g filter="url(#a)"><path fill="#C4D3E0" fill-opacity=".2" d="M26.357 35H11.511l-.606-.005c-2.507-.04-3.504-.346-4.509-.886a6.045 6.045 0 0 1-2.51-2.52l-.12-.233c-.481-.978-.745-2.057-.765-4.591L3 11.546c0-2.971.308-4.05.887-5.135a6.045 6.045 0 0 1 2.51-2.52l.232-.12c.973-.485 2.048-.75 4.572-.77L26.357 3c2.96 0 4.033.31 5.114.89a6.045 6.045 0 0 1 2.51 2.52l.12.234c.482.977.746 2.056.766 4.591l.001 15.219-.005.608c-.04 2.517-.344 3.519-.882 4.527a6.045 6.045 0 0 1-2.51 2.52l-.232.12c-1.012.504-2.134.77-4.882.77Z"/></g><path fill="url(#b)" d="M34.871 19v7.454c0 2.971-.308 4.049-.886 5.135a6.044 6.044 0 0 1-2.51 2.52c-1.082.581-2.155.89-5.115.89h-7.422V19H34.87Z"/><path fill="url(#c)" d="M18.938 3h7.422c2.96 0 4.033.31 5.115.89a6.045 6.045 0 0 1 2.51 2.52c.578 1.087.886 2.165.886 5.136V19H18.938V3Z"/><path fill="url(#d)" d="M11.511 3h7.423v32h-7.423c-2.96 0-4.033-.31-5.115-.89a6.045 6.045 0 0 1-2.51-2.52C3.309 30.502 3 29.424 3 26.453V11.546c0-2.971.308-4.05.887-5.135a6.045 6.045 0 0 1 2.51-2.52C7.477 3.308 8.551 3 11.51 3Z"/><defs><linearGradient id="b" x1="26.904" x2="34.924" y1="19" y2="34.973" gradientUnits="userSpaceOnUse"><stop stop-color="#DEF2FE"/><stop offset="1" stop-color="#DBF1FE"/></linearGradient><linearGradient id="c" x1="18.938" x2="26.957" y1="3" y2="18.973" gradientUnits="userSpaceOnUse"><stop stop-color="#57BCFD"/><stop offset="1" stop-color="#51B5FD"/></linearGradient><linearGradient id="d" x1="8.975" x2="22.609" y1="3" y2="30.155" gradientUnits="userSpaceOnUse"><stop stop-color="#1CA7FD"/><stop offset="1" stop-color="#148CFC"/></linearGradient><filter id="a" width="37.296" height="37.428" x=".286" y=".286" color-interpolation-filters="sRGB" filterUnits="userSpaceOnUse"><feFlood flood-opacity="0" result="BackgroundImageFix"/><feBlend in="SourceGraphic" in2="BackgroundImageFix" result="shape"/><feGaussianBlur result="effect1_foregroundBlur_1_3269" stdDeviation="1.357"/></filter></defs></svg>
